flags/pm.svg

<svg width="512" height="512" viewBox="0 0 512 512" fill="none" xmlns="http://www.w3.org/2000/svg">
<rect width="512" height="512" fill="var(--flag-palette-light-blue, #338af3)"/>
<rect y="146" width="170.667" height="220.001" fill="var(--flag-palette-white, #eeeeee)"/>
<path d="M170.667 0H0V170.667H170.667V0Z" fill="var(--flag-palette-bright-red, #d80027)"/>
<path d="M170.667 22.4V0H149.333L0 148.267V170.667H21.3333L170.667 22.4Z" fill="var(--flag-palette-green, #6da544)"/>
<path d="M0 22.4V0H21.3333L170.667 148.267V170.667H149.333L0 22.4Z" fill="var(--flag-palette-green, #6da544)"/>
<path d="M0 68.2666H170.667V102.4H0V68.2666Z" fill="var(--flag-palette-white, #eeeeee)"/>
<path d="M68.2676 0H102.401V170.667H68.2676V0Z" fill="var(--flag-palette-white, #eeeeee)"/>
<path d="M0 512.001H170.667V341.334H0V512.001Z" fill="var(--flag-palette-bright-red, #d80027)"/>
<path d="M119.466 375.468H51.1995C41.7738 375.468 34.1328 383.109 34.1328 392.534C34.1328 401.96 41.7738 409.601 51.1995 409.601H119.466C128.892 409.601 136.533 401.96 136.533 392.534C136.533 383.109 128.892 375.468 119.466 375.468Z" fill="var(--flag-palette-yellow, #ffda44)"/>
<path d="M119.466 443.734H51.1995C41.7738 443.734 34.1328 451.375 34.1328 460.801C34.1328 470.227 41.7738 477.868 51.1995 477.868H119.466C128.892 477.868 136.533 470.227 136.533 460.801C136.533 451.375 128.892 443.734 119.466 443.734Z" fill="var(--flag-palette-yellow, #ffda44)"/>
<path d="M345.005 155.119V300.024H308.32C286.309 300.024 286.309 270.676 286.309 270.676H198.266V300.024H216.608L351.425 329.372L484.407 300.024V278.013H411.037C411.037 278.013 411.037 300.024 389.026 300.024H359.679V155.119H345.005Z" fill="var(--flag-palette-yellow, #ffda44)"/>
<path d="M359.679 147.782V177.13C331.248 167.042 303.734 184.467 286.309 147.782C316.574 168.876 333.082 138.611 359.679 147.782ZM293.646 189.97C293.646 189.97 271.635 211.981 278.972 256.002H212.939C212.939 256.002 242.287 204.644 293.646 189.97ZM308.32 285.35H395.446C367.015 241.329 395.446 189.97 395.446 189.97H308.32C308.32 189.97 271.635 241.329 308.32 285.35ZM400.949 263.339C395.408 243.932 396.703 223.21 404.617 204.644H462.396C462.396 204.644 447.722 233.992 461.479 263.339H400.949ZM308.32 300.024H484.407C484.407 300.024 477.07 300.024 469.733 322.035C462.396 344.046 455.059 366.057 418.374 366.057H286.309C250.541 366.057 238.619 320.201 216.608 300.024H308.32Z" fill="var(--flag-palette-yellow, #ffda44)"/>
</svg>

<svg xmlns="http://www.w3.org/2000/svg" width="512" height="512" fill="none"><path fill="var(--flag-palette-light-blue, #338af3)" d="M0 0h512v512H0z"/><path fill="var(--flag-palette-white, #eeeeee)" d="M0 146h170.7v220H0z"/><path fill="var(--flag-palette-bright-red, #d80027)" d="M170.7 0H0v170.7h170.7z"/><path fill="var(--flag-palette-green, #6da544)" d="M170.7 22.4V0h-21.4L0 148.3v22.4h21.3z"/><path fill="var(--flag-palette-green, #6da544)" d="M0 22.4V0h21.3l149.4 148.3v22.4h-21.4z"/><path fill="var(--flag-palette-white, #eeeeee)" d="M0 68.3h170.7v34.1H0z"/><path fill="var(--flag-palette-white, #eeeeee)" d="M68.3 0h34.1v170.7H68.3z"/><path fill="var(--flag-palette-bright-red, #d80027)" d="M0 512h170.7V341.3H0z"/><path fill="var(--flag-palette-yellow, #ffda44)" d="M119.5 375.5H51.2a17 17 0 1 0 0 34.1h68.3a17 17 0 1 0 0-34.1m0 68.2H51.2a17 17 0 0 0 0 34.2h68.3a17 17 0 1 0 0-34.2M345 155.1v145h-36.7c-22 0-22-29.4-22-29.4h-88V300h18.3l134.8 29.4 133-29.4v-22H411s0 22-22 22h-29.3V155.1z"/><path fill="var(--flag-palette-yellow, #ffda44)" d="M359.7 147.8V177c-28.5-10-56 7.4-73.4-29.3 30.3 21 46.8-9.2 73.4 0m-66 42.2s-22 22-14.7 66h-66s29.3-51.4 80.6-66m14.6 95.4h87.1c-28.4-44 0-95.4 0-95.4h-87s-36.8 51.3 0 95.4m92.6-22a88 88 0 0 1 3.7-58.8h57.8s-14.7 29.4-1 58.7zM308.3 300h176.1s-7.3 0-14.7 22-14.6 44-51.3 44h-132c-35.9 0-47.8-45.8-69.8-66z"/></svg>
